svgs/snapdrop.svg

<svg width="192" height="192" viewBox="0 0 192 192" fill="none" xmlns="http://www.w3.org/2000/svg"><g clip-path="url(#a)" stroke="#000" stroke-width="12"><path d="M45.5 150c-11-10-19.724-25.838-22.324-40.323a74.825 74.825 0 0 1 4.967-42.916 74.298 74.298 0 0 1 27.833-32.908 73.664 73.664 0 0 1 41.318-11.807 73.693 73.693 0 0 1 40.875 13.272 74.357 74.357 0 0 1 26.657 33.88 74.846 74.846 0 0 1 3.452 43.066C165.169 126.647 158 139 146.5 150" stroke-linecap="round"/><path d="M61 132c-6.866-7.155-12.455-16.824-14.211-26.612a50.55 50.55 0 0 1 3.356-28.997 50.207 50.207 0 0 1 18.806-22.235 49.774 49.774 0 0 1 27.917-7.978 49.786 49.786 0 0 1 27.619 8.968 50.236 50.236 0 0 1 18.011 22.891 50.558 50.558 0 0 1 2.332 29.099c-2.1 9.719-6.716 17.957-13.83 24.864" stroke-linecap="round"/><path d="M96 78a18.007 18.007 0 0 0-12.728 5.272A18.007 18.007 0 0 0 78 96c0 4.772 1.898 9.354 5.272 12.728A18.007 18.007 0 0 0 96 114c4.772 0 9.354-1.898 12.728-5.272A18.007 18.007 0 0 0 114 96c0-4.772-1.898-9.354-5.272-12.728A18.007 18.007 0 0 0 96 78Z"/></g><defs><clipPath id="a"><path fill="#fff" d="M0 0h192v192H0z"/></clipPath></defs></svg>

<?xml version="1.0" encoding="UTF-8" standalone="no"?><svg xmlns:android="http://schemas.android.com/apk/res/android" height="192" width="192" xmlns="http://www.w3.org/2000/svg">
  <g>
    <clip-path android:pathData="M0,0h192v192h-192z"/>
    <path d="M45.5,150C34.5,140 25.78,124.16 23.18,109.68C20.58,95.19 22.31,80.26 28.14,66.76C33.98,53.26 43.67,41.81 55.98,33.85C68.29,25.89 82.66,21.78 97.29,22.05C111.92,22.31 126.15,26.93 138.17,35.32C150.19,43.71 159.47,55.5 164.83,69.2C170.18,82.89 171.39,97.88 168.28,112.26C165.17,126.65 158,139 146.5,150" fill="#000000" fill-opacity="0.0" stroke="#000000" stroke-linecap="round" stroke-width="12"/>
    <path d="M61,132C54.13,124.85 48.54,115.18 46.79,105.39C45.03,95.6 46.2,85.51 50.15,76.39C54.09,67.27 60.63,59.53 68.95,54.16C77.27,48.78 86.98,46 96.87,46.18C106.75,46.35 116.36,49.47 124.49,55.15C132.61,60.82 138.88,68.78 142.5,78.04C146.12,87.29 146.93,97.42 144.83,107.14C142.73,116.86 138.11,125.09 131,132" fill="#000000" fill-opacity="0.0" stroke="#000000" stroke-linecap="round" stroke-width="12"/>
    <path d="M96,78C91.23,78 86.65,79.9 83.27,83.27C79.9,86.65 78,91.23 78,96C78,100.77 79.9,105.35 83.27,108.73C86.65,112.1 91.23,114 96,114C100.77,114 105.35,112.1 108.73,108.73C112.1,105.35 114,100.77 114,96C114,91.23 112.1,86.65 108.73,83.27C105.35,79.9 100.77,78 96,78Z" fill="#000000" fill-opacity="0.0" stroke="#000000" stroke-width="12"/>
  </g>
</svg>
